X: 42151
T: Watchmaker, The
R: reel
M: 4/4
K: Gmajor
|:cded cAAc|BBBd BGGB|cded cAAG|EDEG AAAB|
cded cAAc|BBBd BGGA|BABG AGAG|EDEG AAAB:|
|:cdef g3g|aged cAAB|cdef g2fe|eaag g3B|
cdef gggg|aged cAAB|cded cAAG|EDEG AAAB:|

